X: 40268
T: Toad In The Toilet
R: jig
M: 6/8
K: Bminor
|:fec BAB|fec fga|fec ecA|aec Ace|
fec BfB|fec fga|faa ecA|1 cBB B2e:|2 cBB B2A||
|:~B2a fga|~B2a ecA|~B2a fga|fec ecA|
~B2a fga|~B2a ecA|faa ecA|cBB B2A:|
|:BAB cBc|aec fec|BAB cBc|aec Ace|
BAB cBc|aec fec|efa ecA|1 cBB B2A:|2 cBB B2e||

